X: 9957
T: Devil In The Kitchen, The
R: strathspey
M: 4/4
K: Edorian
|:c>d|B>E (3EEE B>Ed>c|B>E (3EEE (3ded c>d|B>E (3EEE (3Bcd d>B|A<FD>F (3ded:|
|:c>d|e>E (3EEE d>Ec>d|e>E (3EEE (3ded c>d|1 (3efe B>E d>EB>E|A>DF<A d2:|2 e>c (3dcB c>A (3BAG|F>D (3DDD d2||

